X: 11
T: 11. Admiral Gambier's Waltz
M: 3/8
L: 1/16
Q: 1/8=130
K: F
C2| {G/}FEFAGE | {G/}FEFAGE | {G/}FEFGAB | cdcBAG | {G/}FEFAGE | {G/}FEFAGE | FAcfGE | F4 :|!
|:!p![AF][BG] | [c2A2][c2A2][c2A2] | [f4d4] ed | cdcdcA | [G4C4] [AF][AF] | [c2A2][c2A2][c2A2] | [f4d4] ed | cdcBAG | F4 :|!

